X:4351
T:Downfall of Paris,2nd part. JNu.38
M:2/4
Q:100
S:James Nuttall MS,c1830,Rossendale,East Lancs.
O:England
A:East Lancashire
Z:Chris Partington
K:D
"secundo"F2FG F2FG|F2FG A2GF|c2cd c2cd|c2cd fedc|!
d2de d2de|d2de gfed|c2cd c2cd|c4z4|!
F2FG F2FG|F2FG A2GF|c2cd c2cd|c2cd fedc|!
dAde f2e2|dAde f2e2|d2AF G2G2|F2F2F2z2::!
"p"f8|f2d2 g2f2|e2e^d e2ed|e2e^d e4|!
e8|e2c2 f2e2|d2dc d2dc|d2dcd4|!
"f"F2FG F2FG|F2FG A2GF|c2cd c2cd|c2cd fedc|!
dAde f2e2|dAde f2e2|d2dA A2A2|F2F2F2z2::!
"p"ABcd cBAG|FGAB AGFE|"f"F2FF c2cc|d2d2 c2z2|!
"p"ABcd cBAG|FGAB AGFE|"f"F2FG A2G2|F2F2F2z2::!
A2B2c2d2|e2d2c2B2|A2B2c2d2|e2d2c2z2|!
"P"ABcd cBAG|FGAB AGFE|"F"F2FG A2G2|F2[F2A2][F2A2]:|]
